Papirus/64x64/apps/pixel-piracy.svg

<?xml version="1.0" encoding="UTF-8" standalone="no"?>
<svg
   id="_图层_1"
   version="1.1"
   viewBox="0 0 64 64" width="64" height="64"
   sodipodi:docname="pixel-piracy.svg"
   xml:space="preserve"
   inkscape:version="1.4 (e7c3feb100, 2024-10-09)"
   xmlns:inkscape="http://www.inkscape.org/namespaces/inkscape"
   xmlns:sodipodi="http://sodipodi.sourceforge.net/DTD/sodipodi-0.dtd"
   xmlns="http://www.w3.org/2000/svg"
   xmlns:svg="http://www.w3.org/2000/svg"><sodipodi:namedview
     id="namedview26"
     pagecolor="#ffffff"
     bordercolor="#999999"
     borderopacity="1"
     inkscape:showpageshadow="2"
     inkscape:pageopacity="0"
     inkscape:pagecheckerboard="0"
     inkscape:deskcolor="#d1d1d1"
     inkscape:zoom="8.453125"
     inkscape:cx="31.94085"
     inkscape:cy="31.94085"
     inkscape:window-width="1920"
     inkscape:window-height="939"
     inkscape:window-x="0"
     inkscape:window-y="34"
     inkscape:window-maximized="1"
     inkscape:current-layer="g30" /><!-- Generator: Adobe Illustrator 29.0.1, SVG Export Plug-In . SVG Version: 2.1.0 Build 192)  --><defs
     id="defs6"><style
       id="style1">
      .st0 {
        fill-opacity: .5;
      }

      .st0, .st1, .st2, .st3, .st4, .st5, .st6, .st7 {
        fill: #fff;
      }

      .st8 {
        fill: #133c9a;
      }

      .st2, .st9 {
        display: none;
      }

      .st3 {
        fill-opacity: .2;
      }

      .st4 {
        fill-opacity: .9;
      }

      .st10 {
        fill: #3370ff;
      }

      .st11 {
        fill: url(#_未命名的渐变_3);
      }

      .st12 {
        fill: url(#_未命名的渐变);
      }

      .st5 {
        fill-opacity: .3;
      }

      .st6 {
        fill-opacity: 0;
      }

      .st7 {
        fill-opacity: .7;
      }

      .st13 {
        fill: #00d6b9;
      }

      .st14 {
        fill: url(#_未命名的渐变_2);
      }
    </style><radialGradient
       id="_未命名的渐变"
       data-name="未命名的渐变"
       cx="123.9"
       cy="-40.2"
       fx="123.9"
       fy="-40.2"
       r="59.4"
       gradientTransform="translate(-26.8 25.5) scale(.6 -.7)"
       gradientUnits="userSpaceOnUse"><stop
         offset="0"
         stop-color="#db202e"
         id="stop1" /><stop
         offset="1"
         stop-color="#e01b24"
         id="stop2" /></radialGradient><radialGradient
       id="_未命名的渐变_2"
       data-name="未命名的渐变 2"
       cx="67.6"
       cy="26.8"
       fx="67.6"
       fy="26.8"
       r="105.2"
       gradientTransform="translate(-26.6 25.3) scale(.6 -.7)"
       gradientUnits="userSpaceOnUse"><stop
         offset="0"
         stop-color="#ffb648"
         id="stop3" /><stop
         offset="1"
         stop-color="#ff7800"
         stop-opacity="0"
         id="stop4" /></radialGradient><radialGradient
       id="_未命名的渐变_3"
       data-name="未命名的渐变 3"
       cx="61.7"
       cy="18.6"
       fx="61.7"
       fy="18.6"
       r="68"
       gradientTransform="translate(-26.8 25.8) scale(.6 -.7)"
       gradientUnits="userSpaceOnUse"><stop
         offset="0"
         stop-color="#c64600"
         id="stop5" /><stop
         offset="1"
         stop-color="#a51d2d"
         id="stop6" /></radialGradient><style
       id="style1-0">
      .st0 {
        fill-opacity: .5;
      }

      .st0, .st1, .st2, .st3, .st4, .st5, .st6, .st7 {
        fill: #fff;
      }

      .st8 {
        fill: #133c9a;
      }

      .st2, .st9 {
        display: none;
      }

      .st3 {
        fill-opacity: .2;
      }

      .st4 {
        fill-opacity: .9;
      }

      .st10 {
        fill: #3370ff;
      }

      .st11 {
        fill: url(#_未命名的渐变_3);
      }

      .st12 {
        fill: url(#_未命名的渐变);
      }

      .st5 {
        fill-opacity: .3;
      }

      .st6 {
        fill-opacity: 0;
      }

      .st7 {
        fill-opacity: .7;
      }

      .st13 {
        fill: #00d6b9;
      }

      .st14 {
        fill: url(#_未命名的渐变_2);
      }
    </style><radialGradient
       id="_未命名的渐变-6"
       data-name="未命名的渐变"
       cx="123.9"
       cy="-40.2"
       fx="123.9"
       fy="-40.2"
       r="59.4"
       gradientTransform="matrix(0.6,0,0,-0.7,-26.8,25.5)"
       gradientUnits="userSpaceOnUse"><stop
         offset="0"
         stop-color="#db202e"
         id="stop1-3" /><stop
         offset="1"
         stop-color="#e01b24"
         id="stop2-2" /></radialGradient><radialGradient
       id="_未命名的渐变_2-0"
       data-name="未命名的渐变 2"
       cx="67.6"
       cy="26.8"
       fx="67.6"
       fy="26.8"
       r="105.2"
       gradientTransform="matrix(0.6,0,0,-0.7,-26.6,25.3)"
       gradientUnits="userSpaceOnUse"><stop
         offset="0"
         stop-color="#ffb648"
         id="stop3-6" /><stop
         offset="1"
         stop-color="#ff7800"
         stop-opacity="0"
         id="stop4-1" /></radialGradient><radialGradient
       id="_未命名的渐变_3-5"
       data-name="未命名的渐变 3"
       cx="61.7"
       cy="18.6"
       fx="61.7"
       fy="18.6"
       r="68"
       gradientTransform="matrix(0.6,0,0,-0.7,-26.8,25.8)"
       gradientUnits="userSpaceOnUse"><stop
         offset="0"
         stop-color="#c64600"
         id="stop5-5" /><stop
         offset="1"
         stop-color="#a51d2d"
         id="stop6-4" /></radialGradient></defs><path
     class="st1"
     d="M47.5,64.1H13.8c-7.6,0-13.8-6.3-13.8-13.8V13.7C0,6.2,6.2,0,13.7,0h36.6c7.5,0,13.7,6.2,13.7,13.7v36.6c0,7.5-6.2,13.7-13.7,13.7h-2.9.1Z"
     id="path6"
     style="fill:#81d4fa;fill-opacity:1" /><rect
     class="st2"
     x="3"
     y="9.7"
     width="58.1"
     height="45.3"
     id="rect6" /><g
     class="st9"
     id="g21"><path
       class="st12"
       d="M-.1,16v35.3c.3,6.5,6.1,12.6,13.4,12.6l4.7.2h23.3s7.2,0,7.2,0c8.8,0,15.5-4.1,15.5-13.9V16.4h0C64,6.3,58,0,50.7,0H14.8C4.7-.2,0,7.2,0,14.5v1.4h-.1ZM4.6,11.6h4.6v5.8h-4.6v-5.8ZM54.9,11.6h4.6v5.8h-4.6v-5.8ZM4.6,23.2h4.6v5.8h-4.6v-5.8ZM54.9,23.2h4.6v5.8h-4.6v-5.8ZM4.6,34.8h4.6v5.8h-4.6v-5.8ZM54.9,34.8h4.6v5.8h-4.6v-5.8ZM4.6,46.4h4.6v5.8h-4.6v-5.8ZM54.9,46.4h4.6v5.8h-4.6v-5.8Z"
       id="path7" /><path
       class="st14"
       d="M47.5,0h-.7C41.4,0,46.8,0,45.5,0H13.3C4.1.3,0,8.5,0,13.7v1.3c0,.3-.1.3-.1.6v34.3c0,1.1,0,.8,0,.8H0c0,7.1,5.9,13.2,13.8,13.3h0c1.2,0,0,0,1.2,0h0c1.1,0,2.3,0,1.1,0h23.5c1.1,0,0,0,1.1,0h.7c3.2.1-1.7,0,0,0h-2.6c1.1,0,.6,0-1.1,0h-2c1.9,0-.6,0,13.3,0h1.3c5.9,0,13.7-4.3,13.6-11.4l.2-36.2C64.1,8.1,58.6,0,51.2,0M4.8,22.9h4.5v5.8h-4.5v-5.8ZM54.7,11.4h4.5v5.8h-4.5v-5.8ZM4.8,11.4h5v5.8h-5v-5.8ZM54.7,22.9h4.5v5.8h-4.5v-5.8ZM4.8,34.4h4.5v5.8h-4.5v-5.8ZM54.7,34.4h4.5v5.8h-4.5v-5.8ZM4.8,46h4.5v5.8h-4.5v-5.8ZM54.7,46h4.5v5.8h-4.5v-5.8Z"
       id="path8" /><path
       class="st11"
       d="M4.6,9.7v2.2h4.6v-2.2h-4.6ZM54.9,9.7v2.2h4.6v-2.2h-4.6ZM4.6,21.3v2.2h4.6v-2.2h-4.6ZM54.9,21.3v2.2h4.6v-2.2h-4.6ZM4.6,32.9v2.2h4.6v-2.2h-4.6ZM54.9,32.9v2.2h4.6v-2.2h-4.6ZM4.6,44.4v2.2h4.6v-2.2h-4.6ZM54.9,44.4v2.2h4.6v-2.2h-4.6ZM4.6,56v2.2h4.6v-2.2h-4.6ZM54.9,56v2.2h4.6v-2.2h-4.6Z"
       id="path9" /><g
       id="g20"><path
         class="st1"
         d="M25.1,29.3h13.7v11.6h-13.7s0-11.6,0-11.6Z"
         id="path10" /><path
         class="st1"
         d="M32,53.9l-12.6-15.9h25.1l-12.6,15.9h.1Z"
         id="path11" /><path
         class="st7"
         d="M25.1,29.3h4.6v-5.8h-4.6v5.8Z"
         id="path12" /><path
         class="st1"
         d="M29.7,29.3h4.6v-5.8h-4.6s0,5.8,0,5.8Z"
         id="path13" /><path
         class="st4"
         d="M34.3,29.3h4.6v-5.8h-4.6v5.8Z"
         id="path14" /><path
         class="st7"
         d="M38.9,23.5h-4.6v-5.8h4.6v5.8Z"
         id="path15" /><path
         class="st0"
         d="M34.3,23.5h-4.6v-5.8h4.6v5.8Z"
         id="path16" /><path
         class="st4"
         d="M29.7,23.5h-4.6v-5.8h4.6v5.8Z"
         id="path17" /><path
         class="st3"
         d="M38.9,17.7h-4.6v-5.8h4.6v5.8Z"
         id="path18" /><path
         class="st5"
         d="M34.3,17.7h-4.6v-5.8h4.6v5.8Z"
         id="path19" /><path
         class="st6"
         d="M29.7,17.7h-4.6v-5.8h4.6v5.8Z"
         id="path20" /></g></g><g
     class="st9"
     id="g23"><path
       class="st8"
       d="M50.3,23.1c.2,0,.5,0,.7,0,1.8.2,3.5.7,5.1,1.4.5.2.6.4.2.8-1.2,1.2-2.1,2.7-2.9,4.2-.8,1.7-1.6,3.3-2.5,4.9-.6,1.2-1.4,2.3-2.4,3.3-2.5,2.3-5.4,3.2-8.8,2.8-3.8-.5-7.5-1.8-10.9-3.5-.2,0-.3-.2-.5-.3-.1,0-.2-.2,0-.3,0,0,0,0,0,0h.2c2.8-1.6,5.1-3.7,7.3-5.9.9-.9,1.9-1.9,2.8-2.8,2.1-2,4.7-3.4,7.5-4,.6-.2,1.2-.3,1.9-.4h1.4"
       id="path21" /><path
       class="st10"
       d="M23.4,49.9c-.4,0-1.5-.2-1.6-.2-2.7-.3-5.3-1.1-7.7-2.3-1.4-.7-2.8-1.4-4.1-2.2-.9-.5-1.3-1.3-1.3-2.3,0-3.9,0-7.8,0-11.7,0-2.5,0-5-.1-7.5,0-.2,0-.4.1-.7.2-.5.5-.5.8-.2.4.3.6.8,1,1.1,3.2,3.1,6.5,6,10.3,8.3,2.1,1.4,4.3,2.6,6.6,3.6,3.6,1.7,7.4,3.1,11.3,4,3.5.8,6.8.3,9.6-1.9.9-.7,1.3-1.3,2.3-2.6-.5,1.2-1,2.3-1.8,3.4-.7,1-2.1,2.4-3.2,3.5-1.7,1.6-3.9,3-6,4.1-2.3,1.2-4.6,2.2-7.2,2.7-1.3.3-3.2.7-3.8.7-.1,0-.5,0-.7,0-1.7.1-2.7.2-4.4,0h0Z"
       id="path22" /><path
       class="st13"
       d="M16.2,12.3c.1,0,.2,0,.3,0,7.2,0,14.3.1,21.4.1s0,0,0,0c.7.6,1.3,1.2,1.8,1.9,1.6,1.6,2.8,4.4,3.6,6.1.4,1.2,1,2.3,1.3,3.6h0c-.7.3-1.4.5-2.1.9-2.1,1-3,1.8-4.7,3.5-.9.9-1.7,1.7-3,2.9-.5.4-.9.9-1.4,1.3-.3-.6-5.9-11.5-17.1-20"
       id="path23" /></g><g
     id="g29"
     transform="matrix(1.2718985,0,0,1.3177081,-5.1503036,-5.1022718)"><g
       id="g30"
       transform="matrix(0.90747162,0,0,0.86284536,0.68100849,0.65285602)"><path
         style="fill:#248afd"
         d="M 59.077557,36 H 4 L 3.8975063,48.716694 C 3.863721,52.908534 8.1372417,60.090398 15.379547,60 l 33.3434,-0.416189 c 4.0554,-0.05062 10.585727,-5.122768 10.867078,-12.63592 z"
         id="path2"
         sodipodi:nodetypes="ccssssc" /><path
         style="opacity:0.2"
         d="m 24,5 v 4 h -8 v 4 H 28 V 5 Z m -8,8 h -4 v 4 h 4 z m 0,4 v 4 h 4 v -4 z m 0,4 h -4 v 16 h 4 z m 0,16 v 8 h 8 v -4 h -4 v -4 z m 0,8 h -4 v 4 h 4 z m 0,4 v 11 h 4 V 49 Z m -4,0 H 8 l 0.717456,9.12715 5.742393,2.080944 z M 36,5 v 4 h 4 V 5 Z m 4,4 v 4 h 8 V 9 Z m 8,4 v 4 h 4 v -4 z m 0,4 h -4 v 4 h 4 z m 0,4 v 16 h 4 V 21 Z m 0,16 h -4 v 4 h -4 v 4 h 8 z m 0,8 v 4 h 4 v -4 z m 4,4 -0.102494,9.647386 L 55.18005,57.190725 56,49 Z m -4,0 h -4 v 11 h 4 z M 20,25 v 4 h 4 v -4 z m 4,4 v 4 h 4 v -4 z m 12,-4 v 4 h 4 v -4 z m 0,4 h -4 v 4 h 4 z m -8,8 v 4 h 8 v -4 z"
         id="path3"
         sodipodi:nodetypes="cccccccccccccccccccccccccccccccccccccccccccccccccccccccccccccccccccccccccccccccccccccccccccccccccccccccccccccccccccc" /><path
         style="fill:#5d5d5d"
         d="m 24,4 v 4 h -8 v 4 H 28 V 4 Z m -8,8 h -4 v 4 h 4 z m 0,4 v 4 h 4 v -4 z m 0,4 h -4 v 16 h 4 z m 0,16 v 8 h 8 v -4 h -4 v -4 z m 0,8 h -4 v 4 h 4 z m 0,4 v 12 h 4 V 48 Z m -4,0 H 8 l 0.6149622,9.502866 3.4875318,1.976897 z M 36,4 v 4 h 4 V 4 Z m 4,4 v 4 h 8 V 8 Z m 8,4 v 4 h 4 v -4 z m 0,4 h -4 v 4 h 4 z m 0,4 v 16 h 4 V 20 Z m 0,16 h -4 v 4 h -4 v 4 h 8 z m 0,8 v 4 h 4 v -4 z m 4,4 0.102494,10.647386 3.692519,-2.705228 L 56,48 Z m -4,0 h -4 v 12 h 4 z M 20,24 v 4 h 4 v -4 z m 4,4 v 4 h 4 v -4 z m 12,-4 v 4 h 4 v -4 z m 0,4 h -4 v 4 h 4 z m -8,8 v 4 h 8 v -4 z"
         id="path4"
         sodipodi:nodetypes="cccccccccccccccccccccccccccccccccccccccccccccccccccccccccccccccccccccccccccccccccccccccccccccccccccccccccccccccccccc" /><path
         style="fill:#ffffff"
         d="m 20,44 v 4 h 4 v 12 h 4 V 44 Z m 16,0 v 16 h 4 V 48 h 4 v -4 z"
         id="path5" /><path
         style="fill:#df574d"
         d="m 16,44 v 4 h 4 v -4 z m 4,4 v 12 h 4 V 48 Z m -4,0 H 12 L 12.102494,59.375717 16,60 Z m 12,-4 v 4 h 4 v -4 z m 4,4 v 4 h 4 v -4 z m 12,-4 v 4 h 4 v -4 z m 4,4 V 60 L 52.102494,58.959528 52,48 Z m -4,0 h -4 v 12 h 4 z"
         id="path6-4"
         sodipodi:nodetypes="cccccccccccccccccccccccccccccccccccccccc" /><path
         style="opacity:0.2"
         d="m 24,21 v 4 4 h 4 v 4 h -4 v -4 h -4 v -4 h -4 v 12 h 4 v 4 h 4 v 4 h 16 v -4 h 4 v -4 h 4 v -8 h -4 v -4 h -4 v 4 h -4 v 4 h -4 v -4 h 4 v -4 h 4 v -4 z m 4,16 h 8 v 4 h -8 z"
         id="path7-3" /><path
         style="fill:#ffecb3"
         d="m 24,20 v 4 4 h 4 v 4 h -4 v -4 h -4 v -4 h -4 v 12 h 4 v 4 h 4 v 4 h 16 v -4 h 4 v -4 h 4 v -8 h -4 v -4 h -4 v 4 h -4 v 4 h -4 v -4 h 4 v -4 h 4 v -4 z m 4,16 h 8 v 4 h -8 z"
         id="path8-1" /><path
         style="opacity:0.2"
         d="m 28,5 v 8 H 16 v 4 h 4 v 4 h -4 v 4 h 8 v -4 h 16 v 4 h 4 v 4 h 4 v -8 h -4 v -4 h 4 V 13 H 40 V 9 H 36 V 5 Z"
         id="path9-4" /><path
         style="fill:#fecd38"
         d="m 28,4 v 8 H 16 v 4 h 4 v 4 h -4 v 4 h 8 v -4 h 16 v 4 h 4 v 4 h 4 v -8 h -4 v -4 h 4 V 12 H 40 V 8 H 36 V 4 Z"
         id="path10-9" /><path
         style="fill:#f48fb1"
         d="m 32,44 v 4 h 4 v -4 z m 0,4 h -4 v 12 h 4 4 v -8 h -4 z"
         id="path11-2" /></g></g></svg>

<svg xmlns="http://www.w3.org/2000/svg" width="64" height="64" version="1.1">
 <rect style="opacity:0.2" width="56" height="56" x="4" y="5" rx="4" ry="4"/>
 <rect style="fill:#81d4fa" width="56" height="56" x="4" y="4" rx="4" ry="4"/>
 <path style="fill:#248afd" d="M 60 36 L 4 36 L 4 56 C 4 58.216 5.784 60 8 60 L 56 60 C 58.216 60 60 58.216 60 56 L 60 36 z"/>
 <path style="opacity:0.2" d="M 24,5 V 9 H 16 V 13 H 28 V 5 Z M 16,13 H 12 V 17 H 16 Z M 16,17 V 21 H 20 V 17 Z M 16,21 H 12 V 37 H 16 Z M 16,37 V 45 H 24 V 41 H 20 V 37 Z M 16,45 H 12 V 49 H 16 Z M 16,49 V 60 H 20 V 49 Z M 12,49 H 8 V 60 H 12 Z M 36,5 V 9 H 40 V 5 Z M 40,9 V 13 H 48 V 9 Z M 48,13 V 17 H 52 V 13 Z M 48,17 H 44 V 21 H 48 Z M 48,21 V 37 H 52 V 21 Z M 48,37 H 44 V 41 H 40 V 45 H 48 Z M 48,45 V 49 H 52 V 45 Z M 52,49 V 60 H 56 V 49 Z M 48,49 H 44 V 60 H 48 Z M 20,25 V 29 H 24 V 25 Z M 24,29 V 33 H 28 V 29 Z M 36,25 V 29 H 40 V 25 Z M 36,29 H 32 V 33 H 36 Z M 28,37 V 41 H 36 V 37 Z"/>
 <path style="fill:#5d5d5d" d="M 24,4 V 8 H 16 V 12 H 28 V 4 Z M 16,12 H 12 V 16 H 16 Z M 16,16 V 20 H 20 V 16 Z M 16,20 H 12 V 36 H 16 Z M 16,36 V 44 H 24 V 40 H 20 V 36 Z M 16,44 H 12 V 48 H 16 Z M 16,48 V 60 H 20 V 48 Z M 12,48 H 8 V 60 H 12 Z M 36,4 V 8 H 40 V 4 Z M 40,8 V 12 H 48 V 8 Z M 48,12 V 16 H 52 V 12 Z M 48,16 H 44 V 20 H 48 Z M 48,20 V 36 H 52 V 20 Z M 48,36 H 44 V 40 H 40 V 44 H 48 Z M 48,44 V 48 H 52 V 44 Z M 52,48 V 60 H 56 V 48 Z M 48,48 H 44 V 60 H 48 Z M 20,24 V 28 H 24 V 24 Z M 24,28 V 32 H 28 V 28 Z M 36,24 V 28 H 40 V 24 Z M 36,28 H 32 V 32 H 36 Z M 28,36 V 40 H 36 V 36 Z"/>
 <path style="fill:#ffffff" d="M 20,44 V 48 H 24 V 60 H 28 V 44 Z M 36,44 V 60 H 40 V 48 H 44 V 44 Z"/>
 <path style="fill:#df574d" d="m 16,44 v 4 h 4 v -4 z m 4,4 v 12 h 4 V 48 Z m -4,0 h -4 v 12 h 4 z m 12,-4 v 4 h 4 v -4 z m 4,4 v 4 h 4 v -4 z m 12,-4 v 4 h 4 v -4 z m 4,4 v 12 h 4 V 48 Z m -4,0 h -4 v 12 h 4 z"/>
 <path style="opacity:0.2" d="M 24,21 V 25 29 H 28 V 33 H 24 V 29 H 20 V 25 H 16 V 37 H 20 V 41 H 24 V 45 H 40 V 41 H 44 V 37 H 48 V 29 H 44 V 25 H 40 V 29 H 36 V 33 H 32 V 29 H 36 V 25 H 40 V 21 Z M 28,37 H 36 V 41 H 28 Z"/>
 <path style="fill:#ffecb3" d="M 24,20 V 24 28 H 28 V 32 H 24 V 28 H 20 V 24 H 16 V 36 H 20 V 40 H 24 V 44 H 40 V 40 H 44 V 36 H 48 V 28 H 44 V 24 H 40 V 28 H 36 V 32 H 32 V 28 H 36 V 24 H 40 V 20 Z M 28,36 H 36 V 40 H 28 Z"/>
 <path style="opacity:0.2" d="M 28,5 V 13 H 16 V 17 H 20 V 21 H 16 V 25 H 24 V 21 H 40 V 25 H 44 V 29 H 48 V 21 H 44 V 17 H 48 V 13 H 40 V 9 H 36 V 5 Z"/>
 <path style="fill:#fecd38" d="M 28,4 V 12 H 16 V 16 H 20 V 20 H 16 V 24 H 24 V 20 H 40 V 24 H 44 V 28 H 48 V 20 H 44 V 16 H 48 V 12 H 40 V 8 H 36 V 4 Z"/>
 <path style="fill:#f48fb1" d="m 32,44 v 4 h 4 v -4 z m 0,4 h -4 v 12 h 4 4 v -8 h -4 z"/>
 <path style="fill:#ffffff;opacity:0.2" d="m8 4c-2.216 0-4 1.7839997-4 4v1c0-2.2160003 1.784-4 4-4h48c2.216 0 4 1.7839997 4 4v-1c0-2.2160003-1.784-4-4-4h-48z"/>
</svg>
